build/img/close-icon.svg

<svg width="36" height="36" viewBox="0 0 36 36" fill="none" xmlns="http://www.w3.org/2000/svg">
<path fill-rule="evenodd" clip-rule="evenodd" d="M10.8 9C11.79 9 12.6 9.81 12.6 10.8C12.6 11.79 11.79 12.6 10.8 12.6C9.81 12.6 9 11.79 9 10.8C9 9.81 9.81 9 10.8 9Z" fill="white"/>
<path opacity="0.1" fill-rule="evenodd" clip-rule="evenodd" d="M10.8 16C11.79 16 12.6 16.81 12.6 17.8C12.6 18.79 11.79 19.6 10.8 19.6C9.81 19.6 9 18.79 9 17.8C9 16.81 9.81 16 10.8 16Z" fill="white"/>
<path fill-rule="evenodd" clip-rule="evenodd" d="M10.8 23.3999C11.79 23.3999 12.6 24.2099 12.6 25.1999C12.6 26.1899 11.79 26.9999 10.8 26.9999C9.81 26.9999 9 26.1899 9 25.1999C9 24.2099 9.81 23.3999 10.8 23.3999Z" fill="white"/>
<path opacity="0.1" fill-rule="evenodd" clip-rule="evenodd" d="M18 9C18.99 9 19.8 9.81 19.8 10.8C19.8 11.79 18.99 12.6 18 12.6C17.01 12.6 16.2 11.79 16.2 10.8C16.2 9.81 17.01 9 18 9Z" fill="white"/>
<path fill-rule="evenodd" clip-rule="evenodd" d="M18 16.2002C18.99 16.2002 19.8 17.0102 19.8 18.0002C19.8 18.9902 18.99 19.8002 18 19.8002C17.01 19.8002 16.2 18.9902 16.2 18.0002C16.2 17.0102 17.01 16.2002 18 16.2002Z" fill="white"/>
<path opacity="0.1" fill-rule="evenodd" clip-rule="evenodd" d="M18 23.3999C18.99 23.3999 19.8 24.2099 19.8 25.1999C19.8 26.1899 18.99 26.9999 18 26.9999C17.01 26.9999 16.2 26.1899 16.2 25.1999C16.2 24.2099 17.01 23.3999 18 23.3999Z" fill="white"/>
<path fill-rule="evenodd" clip-rule="evenodd" d="M25.2 9C26.19 9 27 9.81 27 10.8C27 11.79 26.19 12.6 25.2 12.6C24.21 12.6 23.4 11.79 23.4 10.8C23.4 9.81 24.21 9 25.2 9Z" fill="white"/>
<path opacity="0.1" fill-rule="evenodd" clip-rule="evenodd" d="M25.2 16.2002C26.19 16.2002 27 17.0102 27 18.0002C27 18.9902 26.19 19.8002 25.2 19.8002C24.21 19.8002 23.4 18.9902 23.4 18.0002C23.4 17.0102 24.21 16.2002 25.2 16.2002Z" fill="white"/>
<path fill-rule="evenodd" clip-rule="evenodd" d="M25.2 23.3999C26.19 23.3999 27 24.2099 27 25.1999C27 26.1899 26.19 26.9999 25.2 26.9999C24.21 26.9999 23.4 26.1899 23.4 25.1999C23.4 24.2099 24.21 23.3999 25.2 23.3999Z" fill="white"/>
<rect x="25.1487" y="8.17822" width="3.6" height="24" transform="rotate(45 25.1487 8.17822)" fill="white"/>
<rect x="27.6943" y="25.1484" width="3.6" height="24" transform="rotate(135 27.6943 25.1484)" fill="white"/>
</svg>

<svg width="36" height="36" viewBox="0 0 36 36" fill="none" xmlns="http://www.w3.org/2000/svg"><path fill-rule="evenodd" clip-rule="evenodd" d="M10.8 9c.99 0 1.8.81 1.8 1.8s-.81 1.8-1.8 1.8S9 11.79 9 10.8 9.81 9 10.8 9z" fill="#fff"/><path opacity=".1" fill-rule="evenodd" clip-rule="evenodd" d="M10.8 16c.99 0 1.8.81 1.8 1.8s-.81 1.8-1.8 1.8S9 18.79 9 17.8s.81-1.8 1.8-1.8z" fill="#fff"/><path fill-rule="evenodd" clip-rule="evenodd" d="M10.8 23.4c.99 0 1.8.81 1.8 1.8s-.81 1.8-1.8 1.8S9 26.19 9 25.2s.81-1.8 1.8-1.8z" fill="#fff"/><path opacity=".1" fill-rule="evenodd" clip-rule="evenodd" d="M18 9c.99 0 1.8.81 1.8 1.8s-.81 1.8-1.8 1.8-1.8-.81-1.8-1.8S17.01 9 18 9z" fill="#fff"/><path fill-rule="evenodd" clip-rule="evenodd" d="M18 16.2c.99 0 1.8.81 1.8 1.8s-.81 1.8-1.8 1.8-1.8-.81-1.8-1.8.81-1.8 1.8-1.8z" fill="#fff"/><path opacity=".1" fill-rule="evenodd" clip-rule="evenodd" d="M18 23.4c.99 0 1.8.81 1.8 1.8S18.99 27 18 27s-1.8-.81-1.8-1.8.81-1.8 1.8-1.8z" fill="#fff"/><path fill-rule="evenodd" clip-rule="evenodd" d="M25.2 9c.99 0 1.8.81 1.8 1.8s-.81 1.8-1.8 1.8-1.8-.81-1.8-1.8.81-1.8 1.8-1.8z" fill="#fff"/><path opacity=".1" fill-rule="evenodd" clip-rule="evenodd" d="M25.2 16.2c.99 0 1.8.81 1.8 1.8s-.81 1.8-1.8 1.8-1.8-.81-1.8-1.8.81-1.8 1.8-1.8z" fill="#fff"/><path fill-rule="evenodd" clip-rule="evenodd" d="M25.2 23.4c.99 0 1.8.81 1.8 1.8s-.81 1.8-1.8 1.8-1.8-.81-1.8-1.8.81-1.8 1.8-1.8z" fill="#fff"/><path fill="#fff" d="M25.15 8.178l2.545 2.546-16.97 16.97-2.546-2.545z"/><path fill="#fff" d="M27.695 25.148l-2.546 2.546-16.97-16.97 2.545-2.546z"/></svg>
